svgs/drugindex.svg

<svg xmlns="http://www.w3.org/2000/svg" viewBox="0 0 192 192"><path d="M110.505 174.646c-12.51-2.696-19.816-9.193-31.696-28.191a3529.03 3529.03 0 0 0-14.65-23.185 3326.236 3326.236 0 0 1-15.306-24.263A13240.393 13240.393 0 0 0 35.71 77.984c-8.998-14.348-10.326-25.739-4.447-38.166 3.301-6.977 13.661-17.158 20.572-20.215 7.207-3.188 17.569-4.408 25.997-3.062 14.437 2.306 24.093 9.795 34.51 26.762 2.787 4.54 8.578 13.836 12.87 20.656 4.291 6.821 11.008 17.497 14.928 23.725 25.621 40.711 23.777 36.861 23.76 49.605-.016 12.181-1.852 16.629-10.61 25.699-11.032 11.425-25.531 15.375-42.785 11.658Zm-11.833-73.251c11.931-6.306 15.664-9.432 17.345-14.525 1.873-5.675.675-8.901-9.435-25.406C95.625 43.576 91.265 37.591 86.78 34.282c-10.457-7.715-28.99-5.713-37.205 4.019-8.88 10.52-9.124 19.929-.854 32.886 1.97 3.085 3.581 5.859 3.581 6.164 0 1.666 16.605 25.463 18.747 26.867 3.856 2.526 9.405 3.821 13.604 3.173 2.076-.32 8.385-3.018 14.019-5.996Z"/></svg>

<svg
    xmlns="http://www.w3.org/2000/svg"
    viewBox="0 0 192 192"
    id="vector">
    <path
        id="path"
        d="M 110.505 174.646 C 97.995 171.95 90.689 165.453 78.809 146.455 C 74.729 139.931 68.136 129.498 64.159 123.27 C 60.182 117.043 53.294 106.124 48.853 99.007 C 44.412 91.889 38.498 82.429 35.71 77.984 C 26.712 63.636 25.384 52.245 31.263 39.818 C 34.564 32.841 44.924 22.66 51.835 19.603 C 59.042 16.415 69.404 15.195 77.832 16.541 C 92.269 18.847 101.925 26.336 112.342 43.303 C 115.129 47.843 120.92 57.139 125.212 63.959 C 129.503 70.78 136.22 81.456 140.14 87.684 C 165.761 128.395 163.917 124.545 163.9 137.289 C 163.884 149.47 162.048 153.918 153.29 162.988 C 142.258 174.413 127.759 178.363 110.505 174.646 Z M 98.672 101.395 C 110.603 95.089 114.336 91.963 116.017 86.87 C 117.89 81.195 116.692 77.969 106.582 61.464 C 95.625 43.576 91.265 37.591 86.78 34.282 C 76.323 26.567 57.79 28.569 49.575 38.301 C 40.695 48.821 40.451 58.23 48.721 71.187 C 50.691 74.272 52.302 77.046 52.302 77.351 C 52.302 79.017 68.907 102.814 71.049 104.218 C 74.905 106.744 80.454 108.039 84.653 107.391 C 86.729 107.071 93.038 104.373 98.672 101.395 Z"
        fill="#000000"
        stroke-width="12"/>
</svg>
